icons/prott.svg

<?xml version="1.0" encoding="UTF-8" standalone="no"?>
<svg width="512px" height="197px" viewBox="0 0 512 197" version="1.1" xmlns="http://www.w3.org/2000/svg" xmlns:xlink="http://www.w3.org/1999/xlink" preserveAspectRatio="xMidYMid">
    <g>
        <path d="M0,180.242943 L0,142.71173 C0,133.950772 7.73169931,126.905245 17.2768558,126.905245 L52.6025121,126.905245 C76.2816071,126.905245 82.5184295,104.273789 82.5184295,92.3209009 C82.5184295,83.143337 79.6205739,74.5539215 74.6151869,68.6724387 C69.3157258,62.5765268 62.1537952,59.6051526 52.5963856,59.6051526 L17.2768558,59.6051526 C7.73169931,59.6112792 0,52.5473732 0,43.8170471 C0,35.1051007 7.73169931,28.010562 17.2768558,28.010562 L52.6025121,28.010562 C72.5260352,28.010562 89.9621812,35.4971995 101.694514,49.1226348 C111.570504,60.5792732 117.023129,75.9385206 117.023129,92.3147743 C117.023129,124.387235 94.4651915,158.505962 52.5963856,158.505962 L34.5169524,158.505962 L34.5169524,180.236816 C34.5169524,188.948763 26.7975062,196.043301 17.2768558,196.043301 C7.73169931,196.049428 0,188.954889 0,180.242943 L0,180.242943 Z M194.027668,27.9983089 C182.999888,27.9983089 173.699793,31.3679085 167.806057,37.347416 C167.438464,31.4046677 160.668633,28.2923831 153.990699,28.2923831 C146.761376,28.2923831 138.980665,31.8764117 138.980665,39.7367684 L137.877887,142.846514 C137.877887,146.583707 139.544307,149.732751 142.699477,151.956686 C145.413537,153.868168 149.028198,154.921934 152.869541,154.921934 C159.829296,154.921934 167.328187,151.25826 167.328187,143.220234 L168.418712,81.9670405 C168.418712,65.6459256 178.790952,54.2566792 193.641696,54.2566792 C195.418394,54.2566792 197.244104,54.4159693 199.192345,54.7590558 C207.193613,55.537127 211.776268,48.7121563 212.100975,42.015843 C212.395049,35.7483879 208.915172,29.0888339 200.521805,28.3965343 C198.346882,28.1269664 196.171959,27.9921824 194.027668,27.9921824 L194.027668,27.9983089 Z M343.760419,91.1262247 C343.760419,108.427587 337.572609,124.313717 326.361032,135.86838 C314.965659,147.58846 299.067276,154.045838 281.59437,154.045838 C264.121465,154.045838 248.223082,147.58846 236.827709,135.86838 C225.597753,124.313717 219.416069,108.42146 219.416069,91.1262247 C219.428322,55.1389016 246.164563,27.9983089 281.61275,27.9983089 C317.048684,27.9983089 343.772672,53.5214938 343.772672,91.1200981 L343.760419,91.1262247 Z M248.676446,91.2181229 C248.676446,110.749547 263.135091,126.035276 281.588244,126.035276 C300.047523,126.035276 314.506168,110.755674 314.506168,91.2242494 C314.506168,71.4967757 300.047523,56.0272506 281.588244,56.0272506 C263.135091,56.0272506 248.676446,71.4906492 248.676446,91.2242494 L248.676446,91.2181229 Z M511.652247,134.483781 C510.475951,129.380369 506.628481,126.078162 501.862029,126.078162 C501.157477,126.078162 500.452924,126.139427 499.656473,126.298717 C496.862769,126.972637 494.387645,127.315724 492.322999,127.315724 C486.729464,127.315724 484.125682,124.926371 484.125682,119.780074 L484.125682,59.102776 L498.61496,59.102776 C505.635981,59.102776 508.834037,52.4370954 508.834037,46.2492853 C508.834037,40.0492222 505.635981,33.3835416 498.61496,33.3835416 L484.125682,33.3835416 L484.125682,11.4260057 C484.131809,3.5840286 476.38173,0 469.170787,0 C461.965971,0 454.222018,3.57790206 454.222018,11.4260057 L454.222018,33.3774151 L399.450709,33.3774151 L399.450709,11.4260057 C399.462962,3.5840286 391.712883,0 384.50194,0 C377.297124,0 369.553172,3.57790206 369.553172,11.4260057 L369.553172,33.3774151 L360.718694,33.3774151 C357.594156,33.3774151 355.033261,34.7865204 353.305575,37.4393142 C351.87809,39.6203641 351.087766,42.5856117 351.087766,45.7714149 C351.087766,52.3880831 354.3961,59.102776 360.718694,59.102776 L369.540918,59.102776 L369.540918,127.058409 C369.540918,143.704231 380.109208,154.045838 397.110369,154.045838 C404.217161,154.045838 411.98562,152.26914 420.207442,148.789263 C426.499404,146.032318 428.135191,139.440156 426.995654,134.483781 C425.807104,129.380369 421.959634,126.078162 417.193182,126.078162 C416.500883,126.078162 415.784077,126.139427 414.99988,126.298717 C412.193922,126.972637 409.731051,127.315724 407.648026,127.315724 C402.060617,127.315724 399.462962,124.926371 399.462962,119.780074 L399.462962,59.102776 L454.215892,59.102776 L454.215892,127.058409 C454.215892,143.704231 464.771928,154.045838 481.785342,154.045838 C488.892134,154.045838 496.64834,152.26914 504.864036,148.789263 C511.162124,146.032318 512.804038,139.440156 511.664501,134.483781 L511.652247,134.483781 Z" fill="#3E3E3E"></path>
    </g>
</svg>

<svg xmlns="http://www.w3.org/2000/svg" viewBox="0 0 512 196.043">
  <path fill="#3e3e3e" d="M0 180.243v-37.531c0-8.761 7.732-15.807 17.277-15.807h35.326c23.679 0 29.915-22.631 29.915-34.584 0-9.178-2.897-17.767-7.903-23.649-5.3-6.095-12.461-9.067-22.019-9.067h-35.32C7.733 59.611 0 52.547 0 43.817c0-8.712 7.732-15.806 17.277-15.806h35.326c19.923 0 37.36 7.486 49.092 21.112 9.876 11.456 15.328 26.816 15.328 43.192 0 32.072-22.558 66.191-64.427 66.191H34.517v21.73c0 8.713-7.72 15.807-17.24 15.807C7.732 196.05 0 188.955 0 180.243zM194.028 27.998c-11.028 0-20.328 3.37-26.222 9.35-.368-5.943-7.137-9.056-13.815-9.056-7.23 0-15.01 3.584-15.01 11.445l-1.103 103.11c0 3.737 1.666 6.886 4.821 9.11 2.715 1.911 6.33 2.965 10.17 2.965 6.96 0 14.46-3.664 14.46-11.702l1.09-61.253c0-16.321 10.372-27.71 25.223-27.71 1.776 0 3.602.159 5.55.502 8.002.778 12.584-6.047 12.909-12.743.294-6.268-3.186-12.927-11.58-13.62a52.876 52.876 0 0 0-6.493-.404zM343.76 91.126c0 17.302-6.187 33.188-17.399 44.742-11.395 11.72-27.294 18.178-44.767 18.178-17.473 0-33.37-6.458-44.766-18.178-11.23-11.554-17.412-27.447-17.412-44.742.012-35.987 26.749-63.128 62.197-63.128 35.436 0 62.16 25.523 62.16 63.122zm-95.084.092c0 19.532 14.46 34.817 32.912 34.817 18.46 0 32.918-15.28 32.918-34.81 0-19.728-14.458-35.198-32.918-35.198-18.453 0-32.912 15.464-32.912 35.197zm262.976 43.266c-1.176-5.104-5.024-8.406-9.79-8.406-.705 0-1.41.061-2.206.22-2.793.675-5.268 1.018-7.333 1.018-5.594 0-8.197-2.39-8.197-7.536V59.103h14.489c7.021 0 10.219-6.666 10.219-12.854 0-6.2-3.198-12.865-10.219-12.865h-14.49V11.426C484.133 3.584 476.383 0 469.172 0c-7.205 0-14.949 3.578-14.949 11.426v21.951h-54.771V11.426C399.463 3.584 391.713 0 384.5 0c-7.204 0-14.948 3.578-14.948 11.426v21.951h-8.834c-3.125 0-5.686 1.41-7.413 4.062-1.428 2.181-2.218 5.147-2.218 8.332 0 6.617 3.308 13.332 9.63 13.332h8.823v67.955c0 16.646 10.568 26.988 27.57 26.988 7.106 0 14.875-1.777 23.096-5.257 6.292-2.757 7.928-9.349 6.789-14.305-1.189-5.104-5.036-8.406-9.803-8.406-.692 0-1.409.061-2.193.22-2.806.675-5.269 1.018-7.352 1.018-5.587 0-8.185-2.39-8.185-7.536V59.103h54.753v67.955c0 16.646 10.556 26.988 27.57 26.988 7.106 0 14.862-1.777 23.078-5.257 6.298-2.757 7.94-9.349 6.8-14.305z"/>
</svg>
